tools/download-figma-icons/icons/solid/rocket.svg

<svg width="25" height="24" viewBox="0 0 25 24" fill="none" xmlns="http://www.w3.org/2000/svg">
<path fill-rule="evenodd" clip-rule="evenodd" d="M16.4978 4.87976C15.0503 4.87976 13.8728 6.05726 13.8728 7.50476C13.8728 8.95226 15.0503 10.1298 16.4978 10.1298C17.9453 10.1298 19.1228 8.95226 19.1228 7.50476C19.1228 6.05726 17.9453 4.87976 16.4978 4.87976ZM23.9528 0.71724C23.9903 1.06224 24.7103 8.97474 19.1528 14.7947L19.1978 15.1397C19.4228 16.6997 18.8903 18.2972 17.7728 19.4147L15.6578 21.5372C15.5153 21.6797 15.3203 21.7547 15.1253 21.7547C15.0653 21.7547 15.0053 21.7472 14.9528 21.7322C14.6978 21.6722 14.4953 21.4847 14.4128 21.2447L13.4603 18.3797C12.5228 18.7472 10.9553 19.2197 9.68778 18.9047C9.55278 18.8672 9.43278 18.7997 9.34278 18.7022L5.30028 14.6597C5.20278 14.5697 5.13528 14.4497 5.09778 14.3147C4.78278 13.0472 5.25528 11.4797 5.62278 10.5422L2.75778 9.58974C2.51778 9.50724 2.33028 9.30474 2.27028 9.04974C2.21028 8.79474 2.28528 8.53224 2.46528 8.34474L4.58778 6.22974C5.70528 5.11224 7.30278 4.57974 8.86278 4.80474L9.20778 4.84974C15.0278 -0.70776 22.9403 0.0122397 23.2853 0.0497397C23.6378 0.0872397 23.9153 0.36474 23.9528 0.71724ZM4.05505 15.7847C4.32505 15.6947 4.61755 15.769 4.82005 15.9722L8.03005 19.1747C8.2333 19.3772 8.3008 19.6772 8.2108 19.9472C8.21052 19.9479 8.20979 19.9498 8.20861 19.953C8.14375 20.1274 6.70407 23.9972 1.40755 23.9972C1.18255 23.9972 0.958303 23.9897 0.725053 23.9747C0.342553 23.9522 0.0425533 23.6522 0.0208033 23.2772C-0.332447 17.3147 4.01005 15.7997 4.05505 15.7847Z" fill="black"/>
</svg>

<svg width="25" height="24" viewBox="0 0 25 24" fill="none" xmlns="http://www.w3.org/2000/svg"><path fill-rule="evenodd" clip-rule="evenodd" d="M16.498 4.88a2.628 2.628 0 0 0-2.625 2.625 2.628 2.628 0 0 0 2.625 2.625 2.628 2.628 0 0 0 2.625-2.625 2.628 2.628 0 0 0-2.625-2.625ZM23.953.717c.037.345.757 8.258-4.8 14.078l.045.345a5.054 5.054 0 0 1-1.425 4.275l-2.115 2.122a.755.755 0 0 1-1.245-.292l-.953-2.865c-.937.367-2.505.84-3.772.525a.73.73 0 0 1-.345-.203L5.3 14.66a.73.73 0 0 1-.202-.345c-.315-1.268.157-2.835.525-3.773L2.758 9.59a.755.755 0 0 1-.488-.54.762.762 0 0 1 .195-.705L4.588 6.23a5.054 5.054 0 0 1 4.275-1.425l.345.045C15.028-.708 22.94.012 23.285.05a.75.75 0 0 1 .668.667ZM4.055 15.785a.744.744 0 0 1 .765.187l3.21 3.203a.754.754 0 0 1 .179.778c-.065.174-1.505 4.044-6.801 4.044-.225 0-.45-.007-.683-.022a.744.744 0 0 1-.704-.698c-.353-5.962 3.989-7.477 4.034-7.492Z" fill="currentColor"/></svg>
